scalable/categories/applications-science.svg

<?xml version="1.0" encoding="UTF-8" standalone="no"?>
<!-- Created with Inkscape (http://www.inkscape.org/) -->

<svg
   xmlns:dc="http://purl.org/dc/elements/1.1/"
   xmlns:cc="http://creativecommons.org/ns#"
   xmlns:rdf="http://www.w3.org/1999/02/22-rdf-syntax-ns#"
   xmlns:svg="http://www.w3.org/2000/svg"
   xmlns="http://www.w3.org/2000/svg"
   xmlns:sodipodi="http://sodipodi.sourceforge.net/DTD/sodipodi-0.dtd"
   xmlns:inkscape="http://www.inkscape.org/namespaces/inkscape"
   width="48"
   height="48"
   viewBox="0 0 12.7 12.7"
   version="1.1"
   id="svg829"
   inkscape:version="0.92.3 (2405546, 2018-03-11)"
   sodipodi:docname="applications-science.svg">
  <defs
     id="defs823" />
  <sodipodi:namedview
     id="base"
     pagecolor="#ffffff"
     bordercolor="#666666"
     borderopacity="1.0"
     inkscape:pageopacity="0.0"
     inkscape:pageshadow="2"
     inkscape:zoom="10.25"
     inkscape:cx="6.5853659"
     inkscape:cy="23.609756"
     inkscape:document-units="mm"
     inkscape:current-layer="layer1"
     showgrid="false"
     showguides="true"
     inkscape:guide-bbox="true"
     inkscape:window-width="1366"
     inkscape:window-height="719"
     inkscape:window-x="0"
     inkscape:window-y="25"
     inkscape:window-maximized="1"
     scale-x="1.9"
     units="px" />
  <metadata
     id="metadata826">
    <rdf:RDF>
      <cc:Work
         rdf:about="">
        <dc:format>image/svg+xml</dc:format>
        <dc:type
           rdf:resource="http://purl.org/dc/dcmitype/StillImage" />
        <dc:title></dc:title>
      </cc:Work>
    </rdf:RDF>
  </metadata>
  <g
     inkscape:label="Capa 1"
     inkscape:groupmode="layer"
     id="layer1"
     transform="translate(0,-284.3)">
    <g
       transform="matrix(2,0,0,2,0.01854487,-296.99224)"
       id="g842">
      <path
         id="path1374-5"
         transform="matrix(0.26458333,0,0,0.26458333,0,290.65)"
         d="M 11.953125,0.13085938 A 11.84323,11.84323 0 0 0 0.109375,11.974609 11.84323,11.84323 0 0 0 11.953125,23.816406 11.84323,11.84323 0 0 0 23.796875,11.974609 11.84323,11.84323 0 0 0 11.953125,0.13085938 Z m -0.0332,1.76171872 A 10.181907,10.181907 0 0 1 22.101562,12.076172 10.181907,10.181907 0 0 1 11.919922,22.257812 10.181907,10.181907 0 0 1 1.7363281,12.076172 10.181907,10.181907 0 0 1 11.919922,1.8925781 Z M 8.8730469,4.5996094 A 0.99999999,0.99999999 0 0 0 8.3867188,6.4726562 l 0.4902343,0.2714844 v 2.6855469 c -0.1300006,0.2040945 -0.2485013,0.3858859 -0.4375,0.7128905 -0.272999,0.470022 -0.6067502,1.061967 -0.96875,1.708984 a 514.61499,514.61499 0 0 0 -2.203125,3.994141 C 4.6945779,16.892708 4.7183591,18.299369 5.5683594,19.359375 6.2423591,20.259356 7.3065001,20.5 8.1875,20.5 h 7.351562 c 0.882,0 1.946141,-0.240594 2.619141,-1.142578 0.85,-1.060006 0.869876,-2.464714 0.296875,-3.511719 -1.163,-2.369008 -2.4745,-4.220409 -3.5625,-6.3984374 V 6.7480469 L 15.382812,6.4726562 A 0.99999999,0.99999999 0 0 0 14.896484,4.5996094 Z m 2.0039061,2 h 2.015625 v 3.1074218 a 0.99999999,0.99999999 0 0 0 0.101563,0.4394528 c 1.201999,2.456996 2.573547,4.343197 3.685547,6.617188 a 0.99999999,0.99999999 0 0 0 0.01953,0.03906 c 0.24,0.440013 0.253391,0.885389 -0.09961,1.316407 a 0.99999999,0.99999999 0 0 0 -0.03516,0.04492 C 16.419455,18.363244 16.078109,18.5 15.537109,18.5 H 8.1875 c -0.54,0 -0.8823437,-0.136756 -1.0273438,-0.335938 A 0.99999999,0.99999999 0 0 0 7.125,18.119141 C 6.7710019,17.688123 6.7834375,17.24368 7.0234375,16.804688 a 512.44698,512.44698 0 0 1 2.1933594,-3.978516 128.3,128.3 0 0 1 0.9511721,-1.681641 c 0.262998,-0.453014 0.490578,-0.810654 0.517578,-0.847656 a 0.99999999,0.99999999 0 0 0 0.191406,-0.5898438 z"
         style="fill:#1a1a1a;fill-opacity:1;stroke-width:0.26165536"
         inkscape:connector-curvature="0" />
      <path
         inkscape:connector-curvature="0"
         id="path4"
         d="M 3.374471,291.2851 A 0.23584512,0.24491606 0 0 0 3.1383098,291.53005 0.23584512,0.24491606 0 0 0 3.374471,291.775 0.23584512,0.24491606 0 0 0 3.6101156,291.53005 0.23584512,0.24491606 0 0 0 3.374471,291.2851 Z m -0.8252725,0.12713 a 0.11792256,0.12699352 0 0 0 -0.1183391,0.12712 0.11792256,0.12699352 0 0 0 0.1183391,0.12713 0.11792256,0.12699352 0 0 0 0.1178222,-0.12713 0.11792256,0.12699352 0 0 0 -0.1178222,-0.12712 z m 0.4986775,2.23139 a 0.19956125,0.19956125 0 0 0 -0.199471,0.19947 0.19956125,0.19956125 0 0 0 0.199471,0.19998 0.19956125,0.19956125 0 0 0 0.199471,-0.19998 0.19956125,0.19956125 0 0 0 -0.199471,-0.19947 z m 0.5617228,0.57825 -0.9420613,5.2e-4 -0.5875611,1.05782 h 2.1166667 z"
         style="overflow:visible;opacity:0.45;fill:#008080;stroke-width:0.26458332" />
    </g>
  </g>
</svg>

<?xml version="1.0" encoding="UTF-8" standalone="no"?>
<!-- Created with Inkscape (http://www.inkscape.org/) -->

<svg
   xmlns:dc="http://purl.org/dc/elements/1.1/"
   xmlns:cc="http://creativecommons.org/ns#"
   xmlns:rdf="http://www.w3.org/1999/02/22-rdf-syntax-ns#"
   xmlns:svg="http://www.w3.org/2000/svg"
   xmlns="http://www.w3.org/2000/svg"
   xmlns:sodipodi="http://sodipodi.sourceforge.net/DTD/sodipodi-0.dtd"
   xmlns:inkscape="http://www.inkscape.org/namespaces/inkscape"
   width="24"
   height="24"
   viewBox="0 0 6.35 6.35"
   version="1.1"
   id="svg829"
   inkscape:version="0.92.3 (2405546, 2018-03-11)"
   sodipodi:docname="applications-science.svg">
  <defs
     id="defs823" />
  <sodipodi:namedview
     id="base"
     pagecolor="#ffffff"
     bordercolor="#666666"
     borderopacity="1.0"
     inkscape:pageopacity="0.0"
     inkscape:pageshadow="2"
     inkscape:zoom="10.3125"
     inkscape:cx="3.4181823"
     inkscape:cy="14.354839"
     inkscape:document-units="mm"
     inkscape:current-layer="layer1"
     showgrid="false"
     showguides="true"
     inkscape:guide-bbox="true"
     inkscape:window-width="1366"
     inkscape:window-height="719"
     inkscape:window-x="0"
     inkscape:window-y="25"
     inkscape:window-maximized="1"
     scale-x="1.9"
     units="px" />
  <metadata
     id="metadata826">
    <rdf:RDF>
      <cc:Work
         rdf:about="">
        <dc:format>image/svg+xml</dc:format>
        <dc:type
           rdf:resource="http://purl.org/dc/dcmitype/StillImage" />
        <dc:title></dc:title>
      </cc:Work>
    </rdf:RDF>
  </metadata>
  <g
     inkscape:label="Capa 1"
     inkscape:groupmode="layer"
     id="layer1"
     transform="translate(0,-290.65)">
    <g
       id="g842">
      <path
         id="path1374"
         transform="matrix(0.26458333,0,0,0.26458333,0,290.65)"
         d="M 11.953125 0.13085938 A 11.84323 11.84323 0 0 0 0.109375 11.974609 A 11.84323 11.84323 0 0 0 11.953125 23.816406 A 11.84323 11.84323 0 0 0 23.796875 11.974609 A 11.84323 11.84323 0 0 0 11.953125 0.13085938 z M 11.919922 1.8925781 A 10.181907 10.181907 0 0 1 22.101562 12.076172 A 10.181907 10.181907 0 0 1 11.919922 22.257812 A 10.181907 10.181907 0 0 1 1.7363281 12.076172 A 10.181907 10.181907 0 0 1 11.919922 1.8925781 z M 8.8730469 4.5996094 A 0.99999999 0.99999999 0 0 0 8.3867188 6.4726562 L 8.8769531 6.7441406 L 8.8769531 9.4296875 C 8.7469525 9.633782 8.6284518 9.8155734 8.4394531 10.142578 C 8.1664541 10.6126 7.8327029 11.204545 7.4707031 11.851562 A 514.61499 514.61499 0 0 0 5.2675781 15.845703 C 4.6945779 16.892708 4.7183591 18.299369 5.5683594 19.359375 C 6.2423591 20.259356 7.3065001 20.5 8.1875 20.5 L 15.539062 20.5 C 16.421062 20.5 17.485203 20.259406 18.158203 19.357422 C 19.008203 18.297416 19.028079 16.892708 18.455078 15.845703 C 17.292078 13.476695 15.980578 11.625294 14.892578 9.4472656 L 14.892578 6.7480469 L 15.382812 6.4726562 A 0.99999999 0.99999999 0 0 0 14.896484 4.5996094 L 8.8730469 4.5996094 z M 10.876953 6.5996094 L 12.892578 6.5996094 L 12.892578 9.7070312 A 0.99999999 0.99999999 0 0 0 12.994141 10.146484 C 14.19614 12.60348 15.567688 14.489681 16.679688 16.763672 A 0.99999999 0.99999999 0 0 0 16.699219 16.802734 C 16.939219 17.242747 16.95261 17.688123 16.599609 18.119141 A 0.99999999 0.99999999 0 0 0 16.564453 18.164062 C 16.419455 18.363244 16.078109 18.5 15.537109 18.5 L 8.1875 18.5 C 7.6475 18.5 7.3051563 18.363244 7.1601562 18.164062 A 0.99999999 0.99999999 0 0 0 7.125 18.119141 C 6.7710019 17.688123 6.7834375 17.24368 7.0234375 16.804688 A 512.44698 512.44698 0 0 1 9.2167969 12.826172 A 128.3 128.3 0 0 1 10.167969 11.144531 C 10.430967 10.691517 10.658547 10.333877 10.685547 10.296875 A 0.99999999 0.99999999 0 0 0 10.876953 9.7070312 L 10.876953 6.5996094 z "
         style="fill:#1a1a1a;fill-opacity:1;stroke-width:0.26165536" />
      <path
         inkscape:connector-curvature="0"
         id="path4"
         d="M 3.374471,291.2851 A 0.23584512,0.24491606 0 0 0 3.1383098,291.53005 0.23584512,0.24491606 0 0 0 3.374471,291.775 0.23584512,0.24491606 0 0 0 3.6101156,291.53005 0.23584512,0.24491606 0 0 0 3.374471,291.2851 Z m -0.8252725,0.12713 a 0.11792256,0.12699352 0 0 0 -0.1183391,0.12712 0.11792256,0.12699352 0 0 0 0.1183391,0.12713 0.11792256,0.12699352 0 0 0 0.1178222,-0.12713 0.11792256,0.12699352 0 0 0 -0.1178222,-0.12712 z m 0.4986775,2.23139 a 0.19956125,0.19956125 0 0 0 -0.199471,0.19947 0.19956125,0.19956125 0 0 0 0.199471,0.19998 0.19956125,0.19956125 0 0 0 0.199471,-0.19998 0.19956125,0.19956125 0 0 0 -0.199471,-0.19947 z m 0.5617228,0.57825 -0.9420613,5.2e-4 -0.5875611,1.05782 h 2.1166667 z"
         style="overflow:visible;opacity:0.45;fill:#008080;stroke-width:0.26458332" />
    </g>
  </g>
</svg>
